icons/14x14_phone_outline.svg

<svg xmlns="http://www.w3.org/2000/svg" width="14" height="14" viewBox="0 0 14 14">
  <path d="M7.20563551,6.82636469 C7.32728441,6.94597236 7.44258837,7.05155951 7.55032033,7.14298376 L7.76777079,6.91111909 C8.39053357,6.25652952 9.37443263,6.09146476 10.2508817,6.52754218 L11.9756418,7.52184245 C12.4996209,7.80414024 12.8660098,8.30407176 12.9693035,8.89051521 C13.0764013,9.4994694 12.8848738,10.1180299 12.4610476,10.5633006 L10.8461271,12.2720516 C10.5004529,12.6332865 10.0007915,12.8943878 9.50148392,12.9719681 C9.37734042,12.9905953 9.23492609,12.9999567 9.07874416,12.9999567 C7.42141328,12.9999567 5.59850593,12.0975317 3.79440377,10.3230405 C2.56417991,9.11338592 1.73154815,7.8692459 1.30368343,6.6204501 C1.05068052,5.88201816 0.954393046,5.20129621 1.01699496,4.66179926 C1.07483633,4.16806705 1.3144727,3.65772955 1.64962656,3.3111991 L3.26232038,1.60618227 C3.7042354,1.14269795 4.33324496,0.923961611 4.966454,1.02382462 C5.59324174,1.12357165 6.13149565,1.52774807 6.36928937,2.03940356 L7.37922717,3.89992942 C7.74690727,4.67613201 7.60647016,5.61504205 7.02256132,6.22789288 L6.84737558,6.4143947 C6.98183024,6.58614286 7.09970802,6.7221553 7.20563551,6.82636469 Z M9.30798336,8.29020027 C9.26595743,8.2693967 9.2303784,8.27536565 9.22170216,8.2844479 L7.94145658,9.64961836 L7.28801396,9.35120869 C7.22536898,9.32212659 7.19851979,9.30916445 7.15224992,9.28542071 C6.7345934,9.071097 6.28473381,8.72571306 5.80323441,8.25229283 C5.58611638,8.03869644 5.37542778,7.78738565 5.1399497,7.4743038 C5.07216026,7.38417379 5.00401396,7.29123738 4.92477673,7.18139719 C4.88257404,7.12289499 4.82590225,7.04379433 4.73707816,6.91988218 L4.25644439,6.25147986 L4.82009379,5.65142167 L5.56967215,4.85346096 C5.58154725,4.84099652 5.58884712,4.79219237 5.5969753,4.80573296 L4.64614716,3.05363364 L3.09502631,4.69347923 C3.05887193,4.73087025 3.01051676,4.833849 3.00353758,4.89341788 C2.97840042,5.1100495 3.03330027,5.49817403 3.19571186,5.97219982 C3.51608917,6.90727538 4.17608599,7.8934598 5.19675624,8.89706447 C6.655662,10.3320251 8.0048905,10.9999567 9.07874416,10.9999567 C9.1407002,10.9999567 9.18526107,10.9970276 9.1995383,10.9948992 C9.25896255,10.9856644 9.3588929,10.9334452 9.39684511,10.8938125 L10.9572265,9.24275106 L9.30798336,8.29020027 Z"/>
</svg>

<svg width="14" height="14" fill="none" xmlns="http://www.w3.org/2000/svg"><path d="M7.206 6.826c.121.12.237.226.344.317l.218-.232c.623-.654 1.606-.82 2.483-.383l1.725.994c.524.282.89.782.993 1.369a1.938 1.938 0 0 1-.508 1.672l-1.615 1.71a2.436 2.436 0 0 1-1.344.699 2.889 2.889 0 0 1-.423.028c-1.658 0-3.48-.902-5.285-2.677-1.23-1.21-2.062-2.454-2.49-3.703-.253-.738-.35-1.419-.287-1.958a2.423 2.423 0 0 1 .633-1.35l1.612-1.706a1.929 1.929 0 0 1 1.705-.582c.626.1 1.165.504 1.402 1.015L7.38 3.9c.368.777.228 1.716-.356 2.329l-.176.186c.135.172.253.308.359.412ZM9.308 8.29c-.042-.02-.078-.015-.086-.006L7.942 9.65l-.654-.299a3.223 3.223 0 0 1-.136-.066c-.417-.214-.867-.56-1.349-1.033a6.87 6.87 0 0 1-.663-.778c-.068-.09-.136-.183-.215-.293l-.188-.261-.48-.669.563-.6.75-.798c.012-.012.019-.06.027-.047l-.95-1.752-1.552 1.64a.457.457 0 0 0-.091.2c-.026.216.03.604.192 1.078.32.935.98 1.921 2 2.925C6.657 10.332 8.006 11 9.08 11c.062 0 .106-.003.12-.005.06-.01.16-.062.198-.101l1.56-1.651-1.649-.953Z" fill="#000"/></svg>
